assets/logo.svg

<?xml version="1.0" encoding="UTF-8" standalone="no"?>
<svg
   version="1.1"
   id="Layer_1"
   x="0px"
   y="0px"
   width="100%"
   viewBox="0 0 680 680"
   enable-background="new 0 0 680 680"
   xml:space="preserve"
   sodipodi:docname="file.svg"
   inkscape:version="1.4 (e7c3feb100, 2024-10-09)"
   xmlns:inkscape="http://www.inkscape.org/namespaces/inkscape"
   xmlns:sodipodi="http://sodipodi.sourceforge.net/DTD/sodipodi-0.dtd"
   xmlns="http://www.w3.org/2000/svg"
   xmlns:svg="http://www.w3.org/2000/svg"><defs
   id="defs3" /><sodipodi:namedview
   id="namedview3"
   pagecolor="#ffffff"
   bordercolor="#000000"
   borderopacity="0.25"
   inkscape:showpageshadow="2"
   inkscape:pageopacity="0.0"
   inkscape:pagecheckerboard="0"
   inkscape:deskcolor="#d1d1d1"
   inkscape:zoom="1.4578878"
   inkscape:cx="404.00914"
   inkscape:cy="370.39887"
   inkscape:window-width="1916"
   inkscape:window-height="1054"
   inkscape:window-x="0"
   inkscape:window-y="0"
   inkscape:window-maximized="0"
   inkscape:current-layer="Layer_1" />
<path
   fill="#000000"
   opacity="1"
   stroke="none"
   d="M 449,681 C 299.33334,681 150.16667,681 1,681 1,454.33334 1,227.66667 1,1 c 226.66667,0 453.33334,0 680,0 0,226.66667 0,453.33334 0,680 -77.16669,0 -154.33331,0 -232,0 M 345.88864,580.95178 c 18.87656,0.76251 37.32297,-2.16528 55.55716,-6.6626 24.16171,-5.95904 46.88483,-15.48034 68.01987,-28.58984 21.26925,-13.19275 40.56875,-28.87646 56.45865,-48.30164 14.52044,-17.75097 26.7713,-36.97927 36.05743,-58.09594 10.97595,-24.95917 18.1402,-50.97715 19.74109,-78.05912 1.5863,-26.83575 0.71179,-53.72451 -6.46613,-80.03833 -5.6994,-20.89337 -13.25702,-40.93502 -24.03003,-59.78335 -14.04162,-24.56706 -31.20721,-46.59476 -53.10058,-64.56537 -19.81329,-16.26323 -41.46155,-29.66781 -65.49405,-39.0253 -28.87033,-11.24116 -58.53681,-17.957663 -90.6333,-16.79461 -13.70261,-0.3445 -27.27713,0.55596 -40.83325,2.87204 -23.32556,3.98519 -45.66886,10.96973 -66.80503,21.47262 -15.14615,7.52635 -29.26593,16.73312 -42.72484,27.14412 -16.16526,12.50444 -30.20643,26.9577 -42.40153,43.13255 -10.93477,14.50325 -20.05588,30.16768 -27.56891,46.84976 -11.53888,25.62119 -18.65652,52.39634 -20.40411,80.24216 -1.536059,24.47528 -0.37415,48.9715 5.59714,73.11444 5.80296,23.46231 14.13499,45.86563 26.43566,66.55973 14.38671,24.20349 31.9137,45.87967 54.10178,63.68023 13.90205,11.15302 28.33896,21.44354 44.39445,29.00019 13.27242,6.2467 27.09945,11.48791 41.03048,16.12365 23.35543,7.77185 47.49887,10.83625 73.06805,9.72461 z"
   id="path1"
   style="display:none" />
<path
   fill="#F269AD"
   opacity="1.000000"
   stroke="none"
   d=" M344.953674,580.863037   C320.319458,582.063416 296.176025,578.999023 272.820587,571.227173   C258.889557,566.591431 245.062531,561.350220 231.790115,555.103516   C215.734619,547.546875 201.297714,537.256348 187.395660,526.103333   C165.207581,508.302765 147.680588,486.626587 133.293884,462.423096   C120.993210,441.729004 112.661179,419.325684 106.858223,395.863373   C100.886925,371.720428 99.725021,347.224213 101.261078,322.748932   C103.008675,294.903107 110.126312,268.127960 121.665192,242.506775   C129.178223,225.824692 138.299332,210.160263 149.234100,195.657013   C161.429199,179.482162 175.470367,165.028900 191.635635,152.524460   C205.094543,142.113464 219.214325,132.906693 234.360474,125.380341   C255.496643,114.877449 277.839935,107.892914 301.165497,103.907722   C314.721619,101.591637 328.296143,100.691177 342.660522,101.386688   C345.592804,102.708382 347.904572,103.593361 350.127380,104.663116   C370.997894,114.707314 389.097015,128.371765 404.966125,145.297836   C419.609100,160.916031 431.542847,178.335068 441.500610,197.134079   C450.877106,214.835739 457.981445,233.494644 463.410522,252.794769   C469.555145,274.638519 473.911560,296.901428 474.746368,319.502655   C475.588196,342.294891 476.508789,365.281464 471.962646,387.895264   C468.617249,404.536346 465.406982,421.251373 460.953827,437.611542   C454.901337,459.847412 445.321136,480.708221 433.240265,500.377747   C417.806885,525.505615 399.031738,547.635254 374.346191,564.107971   C364.988586,570.352295 354.776337,575.315735 344.953674,580.863037  z"
   id="path2" />
<path
   fill="#420165"
   opacity="1"
   stroke="none"
   d="m 345.42114,580.90741 c 9.3552,-5.59167 19.56745,-10.55511 28.92505,-16.79944 24.68555,-16.47272 43.4607,-38.60235 58.89408,-63.73022 12.08087,-19.66953 21.66107,-40.53034 27.71356,-62.76621 4.45315,-16.36017 7.66342,-33.07519 11.00882,-49.71628 4.54614,-22.6138 3.62555,-45.60037 2.78372,-68.39261 -0.83481,-22.60122 -5.19123,-44.86413 -11.33585,-66.70788 -5.42908,-19.30013 -12.53341,-37.95903 -21.90991,-55.66069 -9.95776,-18.79901 -21.89151,-36.21805 -36.53449,-51.83624 -15.86911,-16.92608 -33.96823,-30.59053 -54.83874,-40.63472 -2.22281,-1.06976 -4.53458,-1.95474 -7.00684,-3.21534 30.9747,-1.575153 60.64118,5.14135 89.51151,16.38251 24.0325,9.35749 45.68076,22.76207 65.49405,39.0253 21.89337,17.97061 39.05896,39.99831 53.10058,64.56537 10.77301,18.84833 18.33063,38.88998 24.03003,59.78335 7.17792,26.31382 8.05243,53.20258 6.46613,80.03833 -1.60089,27.08197 -8.76514,53.09995 -19.74109,78.05912 -9.28613,21.11667 -21.53699,40.34497 -36.05743,58.09594 -15.8899,19.42518 -35.1894,35.10889 -56.45865,48.30164 -21.13504,13.1095 -43.85816,22.6308 -68.01987,28.58984 -18.23419,4.49732 -36.6806,7.42511 -56.02466,6.61823 z"
   id="path3"
   style="display:inline" />
</svg>

<svg version="1.1" id="Layer_1" xmlns="http://www.w3.org/2000/svg" xmlns:xlink="http://www.w3.org/1999/xlink" x="0px" y="0px"
	 width="100%" viewBox="0 0 680 680" enable-background="new 0 0 680 680" xml:space="preserve">
<path fill="#000000" opacity="1.000000" stroke="none" 
	d="
M449.000000,681.000000 
	C299.333344,681.000000 150.166672,681.000000 1.000000,681.000000 
	C1.000000,454.333344 1.000000,227.666672 1.000000,1.000000 
	C227.666672,1.000000 454.333344,1.000000 681.000000,1.000000 
	C681.000000,227.666672 681.000000,454.333344 681.000000,681.000000 
	C603.833313,681.000000 526.666687,681.000000 449.000000,681.000000 
M345.888641,580.951782 
	C364.765198,581.714294 383.211609,578.786499 401.445801,574.289185 
	C425.607513,568.330139 448.330627,558.808838 469.465668,545.699341 
	C490.734924,532.506592 510.034424,516.822876 525.924316,497.397705 
	C540.444763,479.646729 552.695618,460.418427 561.981750,439.301758 
	C572.957703,414.342590 580.121948,388.324615 581.722839,361.242645 
	C583.309143,334.406891 582.434631,307.518127 575.256714,281.204315 
	C569.557312,260.310944 561.999695,240.269287 551.226685,221.420959 
	C537.185059,196.853897 520.019470,174.826202 498.126099,156.855591 
	C478.312805,140.592361 456.664551,127.187775 432.632050,117.830292 
	C403.761719,106.589134 374.095245,99.872627 341.998749,101.035683 
	C328.296143,100.691177 314.721619,101.591637 301.165497,103.907722 
	C277.839935,107.892914 255.496643,114.877449 234.360474,125.380341 
	C219.214325,132.906693 205.094543,142.113464 191.635635,152.524460 
	C175.470367,165.028900 161.429199,179.482162 149.234100,195.657013 
	C138.299332,210.160263 129.178223,225.824692 121.665192,242.506775 
	C110.126312,268.127960 103.008675,294.903107 101.261078,322.748932 
	C99.725021,347.224213 100.886925,371.720428 106.858223,395.863373 
	C112.661179,419.325684 120.993210,441.729004 133.293884,462.423096 
	C147.680588,486.626587 165.207581,508.302765 187.395660,526.103333 
	C201.297714,537.256348 215.734619,547.546875 231.790115,555.103516 
	C245.062531,561.350220 258.889557,566.591431 272.820587,571.227173 
	C296.176025,578.999023 320.319458,582.063416 345.888641,580.951782 
z"/>
<path fill="#F269AD" opacity="1.000000" stroke="none" 
	d="
M344.953674,580.863037 
	C320.319458,582.063416 296.176025,578.999023 272.820587,571.227173 
	C258.889557,566.591431 245.062531,561.350220 231.790115,555.103516 
	C215.734619,547.546875 201.297714,537.256348 187.395660,526.103333 
	C165.207581,508.302765 147.680588,486.626587 133.293884,462.423096 
	C120.993210,441.729004 112.661179,419.325684 106.858223,395.863373 
	C100.886925,371.720428 99.725021,347.224213 101.261078,322.748932 
	C103.008675,294.903107 110.126312,268.127960 121.665192,242.506775 
	C129.178223,225.824692 138.299332,210.160263 149.234100,195.657013 
	C161.429199,179.482162 175.470367,165.028900 191.635635,152.524460 
	C205.094543,142.113464 219.214325,132.906693 234.360474,125.380341 
	C255.496643,114.877449 277.839935,107.892914 301.165497,103.907722 
	C314.721619,101.591637 328.296143,100.691177 342.660522,101.386688 
	C345.592804,102.708382 347.904572,103.593361 350.127380,104.663116 
	C370.997894,114.707314 389.097015,128.371765 404.966125,145.297836 
	C419.609100,160.916031 431.542847,178.335068 441.500610,197.134079 
	C450.877106,214.835739 457.981445,233.494644 463.410522,252.794769 
	C469.555145,274.638519 473.911560,296.901428 474.746368,319.502655 
	C475.588196,342.294891 476.508789,365.281464 471.962646,387.895264 
	C468.617249,404.536346 465.406982,421.251373 460.953827,437.611542 
	C454.901337,459.847412 445.321136,480.708221 433.240265,500.377747 
	C417.806885,525.505615 399.031738,547.635254 374.346191,564.107971 
	C364.988586,570.352295 354.776337,575.315735 344.953674,580.863037 
z"/>
<path fill="#420165" opacity="1.000000" stroke="none" 
	d="
M345.421143,580.907410 
	C354.776337,575.315735 364.988586,570.352295 374.346191,564.107971 
	C399.031738,547.635254 417.806885,525.505615 433.240265,500.377747 
	C445.321136,480.708221 454.901337,459.847412 460.953827,437.611542 
	C465.406982,421.251373 468.617249,404.536346 471.962646,387.895264 
	C476.508789,365.281464 475.588196,342.294891 474.746368,319.502655 
	C473.911560,296.901428 469.555145,274.638519 463.410522,252.794769 
	C457.981445,233.494644 450.877106,214.835739 441.500610,197.134079 
	C431.542847,178.335068 419.609100,160.916031 404.966125,145.297836 
	C389.097015,128.371765 370.997894,114.707314 350.127380,104.663116 
	C347.904572,103.593361 345.592804,102.708382 343.120544,101.447784 
	C374.095245,99.872627 403.761719,106.589134 432.632050,117.830292 
	C456.664551,127.187775 478.312805,140.592361 498.126099,156.855591 
	C520.019470,174.826202 537.185059,196.853897 551.226685,221.420959 
	C561.999695,240.269287 569.557312,260.310944 575.256714,281.204315 
	C582.434631,307.518127 583.309143,334.406891 581.722839,361.242645 
	C580.121948,388.324615 572.957703,414.342590 561.981750,439.301758 
	C552.695618,460.418427 540.444763,479.646729 525.924316,497.397705 
	C510.034424,516.822876 490.734924,532.506592 469.465668,545.699341 
	C448.330627,558.808838 425.607513,568.330139 401.445801,574.289185 
	C383.211609,578.786499 364.765198,581.714294 345.421143,580.907410 
z"/>
</svg>
